app/client/src/assets/icons/blueprintjs/20px/label.svg

<svg xmlns="http://www.w3.org/2000/svg" xml:space="preserve" viewBox="0 0 20 20"><path fill-rule="evenodd" d="M3 12h14v-1H3v1zm11-9H1c-.55 0-1 .45-1 1v12c0 .55.45 1 1 1h18c.55 0 1-.45 1-1V9l-6-6zm4 12H2V5h11v3H3v1h10v1h5v5zm-4-6V5l4 4h-4z" clip-rule="evenodd"/></svg>

<?xml version="1.0" encoding="utf-8"?>
<!-- Generator: Adobe Illustrator 17.1.0, SVG Export Plug-In . SVG Version: 6.00 Build 0)  -->
<!DOCTYPE svg PUBLIC "-//W3C//DTD SVG 1.1//EN" "http://www.w3.org/Graphics/SVG/1.1/DTD/svg11.dtd">
<svg version="1.1" id="Layer_1" xmlns="http://www.w3.org/2000/svg" xmlns:xlink="http://www.w3.org/1999/xlink" x="0px" y="0px"
	 viewBox="0 0 20 20" enable-background="new 0 0 20 20" xml:space="preserve">
<g id="label_1_">
	<g>
		<path fill-rule="evenodd" clip-rule="evenodd" d="M3,12h14v-1H3V12z M14,3H1C0.45,3,0,3.45,0,4v12c0,0.55,0.45,1,1,1h18
			c0.55,0,1-0.45,1-1V9L14,3z M18,15H2V5h11v3H3v1h10v1h5V15z M14,9V5l4,4H14z"/>
	</g>
</g>
</svg>
